X: 1
T: John Stenson's
M: 4/4
L: 1/8
R: reel
K: Amaj
cB|:ABcA ~B2cB|ABcB {c}BAFB|ABcA ~B2cf|{f}ecAB AFAB|
ABcA ~B2cB|ABcA BAFA|d2dc dfed|1 cdBc A2cB:|2 cdBc A2cd||
|:{f}e2cd edcd|{f}e2cA BAFB|{f}e2cd edcA|{c}BABc BAFA|
{f}e2cd edcd|e2cA BAFA|d2dc dfed|1cdBc A2cd:|2 cdBc A2cB|
